teeny/solid/google-streetview.svg

<svg width="15" height="15" viewBox="0 0 15 15" fill="none" xmlns="http://www.w3.org/2000/svg">
<path d="M5 2.5C5 1.11929 6.11929 0 7.5 0C8.88071 0 10 1.11929 10 2.5C10 3.88071 8.88071 5 7.5 5C6.11929 5 5 3.88071 5 2.5Z" fill="black"/>
<path d="M7.5 6C5.567 6 4 7.567 4 9.5V11.5C4 11.7761 4.22386 12 4.5 12H10.5C10.7761 12 11 11.7761 11 11.5V9.5C11 7.567 9.433 6 7.5 6Z" fill="black"/>
<path d="M1.39448 10.6951C1.1108 10.9868 1 11.2579 1 11.4999C1 11.7451 1.1138 12.0204 1.40597 12.3164C1.70026 12.6146 2.15089 12.9061 2.74721 13.1617C3.93808 13.672 5.6181 13.9999 7.5 13.9999C9.3819 13.9999 11.0619 13.672 12.2528 13.1617C12.8491 12.9061 13.2997 12.6146 13.594 12.3164C13.8862 12.0204 14 11.7451 14 11.4999C14 11.2579 13.8892 10.9868 13.6055 10.6951C13.3196 10.4011 12.8812 10.1128 12.2996 9.85847L12.7004 8.94226C13.356 9.22901 13.9176 9.58176 14.3224 9.99791C14.7294 10.4164 15 10.9245 15 11.4999C15 12.0832 14.722 12.5971 14.3058 13.0189C13.8916 13.4385 13.3171 13.7935 12.6467 14.0808C11.3041 14.6562 9.48409 14.9999 7.5 14.9999C5.51591 14.9999 3.69593 14.6562 2.35329 14.0808C1.68286 13.7935 1.10837 13.4385 0.694221 13.0189C0.277951 12.5971 0 12.0832 0 11.4999C0 10.9245 0.270611 10.4164 0.677626 9.99791C1.08238 9.58176 1.644 9.22901 2.29965 8.94226L2.70035 9.85847C2.11881 10.1128 1.68043 10.4011 1.39448 10.6951Z" fill="black"/>
</svg>

<svg viewBox="0 0 15 15" xmlns="http://www.w3.org/2000/svg"><g><path d="M5 2.5C5 1.11 6.11 0 7.5 0 8.88 0 10 1.11 10 2.5 10 3.88 8.88 5 7.5 5 6.11 5 5 3.88 5 2.5Z"/><path d="M7.5 6C5.56 6 4 7.56 4 9.5v2c0 .27.22.5.5.5h6c.27 0 .5-.23.5-.5v-2C11 7.56 9.43 6 7.5 6Z"/><path d="M1.39 10.69c-.29.29-.4.56-.4.8s.11.52.4.81c.29.29.74.58 1.34.84 1.19.51 2.87.83 4.75.83s3.56-.33 4.75-.84c.59-.26 1.04-.55 1.34-.85 .29-.3.4-.58.4-.82 0-.25-.12-.52-.4-.81 -.29-.3-.73-.59-1.31-.84l.4-.92c.65.28 1.21.63 1.62 1.05 .4.41.67.92.67 1.5s-.28 1.09-.7 1.51c-.42.41-.99.77-1.66 1.06 -1.35.57-3.17.91-5.15.91 -1.99 0-3.81-.35-5.15-.92 -.68-.29-1.25-.65-1.66-1.07 -.42-.43-.7-.94-.7-1.52 0-.58.27-1.09.67-1.51 .4-.42.96-.77 1.62-1.06l.4.91c-.59.25-1.02.54-1.31.83Z"/></g></svg>
